assets/icon_poczatkujacy.svg

<svg xmlns="http://www.w3.org/2000/svg" width="35" height="35"><path fill="#231F20" d="M17.341 0A17.377 17.377 0 0 0 5.026 5.094c2.433 1.945 5.866 4.286 9.183 6.439l-1.89 2.88c-2.112-2.425-6.14-6.674-8.049-8.49C1.563 8.994-.093 13.015-.093 17.431c0 9.629 7.806 17.434 17.434 17.434s17.434-7.805 17.434-17.434C34.774 7.804 26.969 0 17.341 0zm-3.024 32.63l-.793-.188c-.129-7.085-.071-10.884-.009-13.154l2.8 1.478c-.554 1.873-1.235 5.334-1.998 11.864zm2.808-13.666l-.058-.033c-.129.192-.274.478-.432.882l-3.087-1.63c.033-1.034.055-1.659.029-2.22a9.741 9.741 0 0 0-.588-.76l2.053-3.13c.919.592 1.823 1.166 2.685 1.707l-.602 5.184zm5.89 13.794l-.76-.016s.427-5.225.444-8.199l1.564.616-1.248 7.599zm2.16-13.141l-.746 4.54-1.746-.688c-.018-.373-.052-.658-.104-.811-1.341-1.223-2.851-2.163-4.518-3.145l.601-5.185c1.973 1.084 3.695 1.568 4.702 1.941.089.034.221-.266.372-.774l1.761.791-.322 3.331zm-1.177-5.092c.729-2.959 1.714-8.642 1.714-8.642l.739.514-.854 8.847-1.599-.719zm4.052 7.734a2.12 2.12 0 1 1 .002-4.238 2.12 2.12 0 0 1-.002 4.238z"/></svg>

<?xml version="1.0" encoding="utf-8"?>
<!-- Generator: Adobe Illustrator 16.0.0, SVG Export Plug-In . SVG Version: 6.00 Build 0)  -->
<!DOCTYPE svg PUBLIC "-//W3C//DTD SVG 1.1//EN" "http://www.w3.org/Graphics/SVG/1.1/DTD/svg11.dtd">
<svg version="1.1" id="Warstwa_1" xmlns="http://www.w3.org/2000/svg" xmlns:xlink="http://www.w3.org/1999/xlink" x="0px" y="0px"
	 width="35px" height="35px" viewBox="0 0 35 35" enable-background="new 0 0 35 35" xml:space="preserve">
<path fill="#231F20" d="M17.341,0C12.533,0,8.18,1.946,5.026,5.094c2.433,1.945,5.866,4.286,9.183,6.439l-1.89,2.88
	c-2.112-2.425-6.14-6.674-8.049-8.49c-2.707,3.071-4.363,7.092-4.363,11.508c0,9.629,7.806,17.434,17.434,17.434
	s17.434-7.805,17.434-17.434C34.774,7.804,26.969,0,17.341,0z M14.317,32.63l-0.793-0.188c-0.129-7.085-0.071-10.884-0.009-13.154
	l2.8,1.478C15.761,22.639,15.08,26.1,14.317,32.63z M17.125,18.964c-0.02-0.011-0.038-0.022-0.058-0.033
	c-0.129,0.192-0.274,0.478-0.432,0.882l-3.087-1.63c0.033-1.034,0.055-1.659,0.029-2.22c-0.108-0.167-0.319-0.435-0.588-0.76
	l2.053-3.13c0.919,0.592,1.823,1.166,2.685,1.707L17.125,18.964z M23.015,32.758l-0.76-0.016c0,0,0.427-5.225,0.444-8.199
	l1.564,0.616L23.015,32.758z M25.175,19.617l-0.746,4.54l-1.746-0.688c-0.018-0.373-0.052-0.658-0.104-0.811
	c-1.341-1.223-2.851-2.163-4.518-3.145l0.601-5.185c1.973,1.084,3.695,1.568,4.702,1.941c0.089,0.034,0.221-0.266,0.372-0.774
	l1.761,0.791L25.175,19.617z M23.998,14.525c0.729-2.959,1.714-8.642,1.714-8.642l0.739,0.514l-0.854,8.847L23.998,14.525z
	 M28.05,22.259c-1.169,0-2.118-0.949-2.118-2.119c0-1.169,0.949-2.118,2.118-2.118c1.171,0,2.12,0.949,2.12,2.118
	C30.17,21.31,29.221,22.259,28.05,22.259z"/>
</svg>
